Adwaita++-Dark/actions/16/escape-direction-horizontal.svg

<svg height="16" viewBox="0 0 16 16" width="16" xmlns="http://www.w3.org/2000/svg">
  <path d="m1 1.0039062v13.9999998h14v-13.9999998zm2 2h10v4h-3.2773438c-.1703999-.2930999-.4085937-.5367874-.6992187-.7109374-.015-.0090001-.031875-.0163907-.046875-.0253907-.119325-.0675-.2460062-.1222125-.3789063-.1640625-.03825-.012-.0759343-.0234531-.1152343-.0332031-.155475-.039-.3149469-.0664063-.4824219-.0664063s-.3269469.0274063-.4824219.0664063c-.039.00975-.0769093.0212031-.1152343.0332031-.1329.042-.2595813.0967875-.3789063.1640625-.01575.009-.031875.0163906-.046875.0253907-.290625.1741499-.5288188.4178374-.6992187.7109374h-3.2773438zm0 6h3.2773438c.1703999.2931.4085937.5367875.6992187.7109376.015.0089999.031875.0183437.046875.0273437.119325.0675.2460063.1222125.3789063.1640625.0382499.012.0759343.0215.1152343.03125.155475.039.3149469.068359.4824219.068359s.3269469-.029359.4824219-.068359c.039-.00975.0769093-.01925.1152343-.03125.1329-.042.2595813-.0967875.3789063-.1640625.01575-.009.031875-.0183437.046875-.0273437.290625-.1741501.5288188-.4178375.6992187-.7109376h3.2773438v3.9999998h-10z" fill="#e6ddff"/>
</svg>

<svg xmlns="http://www.w3.org/2000/svg" width="16" height="16" viewBox="0 0 16 16">
 <defs>
  <style id="current-color-scheme" type="text/css">
   .ColorScheme-Text { color:#E6DDFF; } .ColorScheme-Highlight { color:#4285f4; }
  </style>
 </defs>
 <path style="fill:currentColor" class="ColorScheme-Text" d="M 1 1.0039062 L 1 15.003906 L 15 15.003906 L 15 1.0039062 L 1 1.0039062 z M 3 3.0039062 L 13 3.0039062 L 13 7.0039062 L 9.7226562 7.0039062 C 9.5522563 6.7108063 9.3140625 6.4671188 9.0234375 6.2929688 C 9.0084375 6.2839687 8.9915625 6.2765781 8.9765625 6.2675781 C 8.8572375 6.2000781 8.7305563 6.1453656 8.5976562 6.1035156 C 8.5594062 6.0915156 8.5217219 6.0800625 8.4824219 6.0703125 C 8.3269469 6.0313125 8.167475 6.0039062 8 6.0039062 C 7.832525 6.0039062 7.6730531 6.0313125 7.5175781 6.0703125 C 7.4785781 6.0800625 7.4406688 6.0915156 7.4023438 6.1035156 C 7.2694438 6.1455156 7.1427625 6.2003031 7.0234375 6.2675781 C 7.0076875 6.2765781 6.9915625 6.2839687 6.9765625 6.2929688 C 6.6859375 6.4671187 6.4477437 6.7108062 6.2773438 7.0039062 L 3 7.0039062 L 3 3.0039062 z M 3 9.0039062 L 6.2773438 9.0039062 C 6.4477437 9.2970062 6.6859375 9.5406937 6.9765625 9.7148438 C 6.9915625 9.7238437 7.0084375 9.7331875 7.0234375 9.7421875 C 7.1427625 9.8096875 7.2694438 9.8644 7.4023438 9.90625 C 7.4405937 9.91825 7.4782781 9.92775 7.5175781 9.9375 C 7.6730531 9.9765 7.832525 10.005859 8 10.005859 C 8.167475 10.005859 8.3269469 9.9765 8.4824219 9.9375 C 8.5214219 9.92775 8.5593312 9.91825 8.5976562 9.90625 C 8.7305562 9.86425 8.8572375 9.8094625 8.9765625 9.7421875 C 8.9923125 9.7331875 9.0084375 9.7238438 9.0234375 9.7148438 C 9.3140625 9.5406937 9.5522563 9.2970063 9.7226562 9.0039062 L 13 9.0039062 L 13 13.003906 L 3 13.003906 L 3 9.0039062 z"/>
</svg>
